X:21163 
T:PORTPATRICK JIG, The
B:DMI.0356
Z:Nordberg/Black
R:jig
%Q:1/4=160
M:6/8
L:1/8
K:G
g|dBG GAB|c2B A2G|dBG GAG|A2B c2g|
dBG GAB|c2B A2G|BdB cAd|BGG G2:|
d|ece dBd|ece def|gfe dBG|A2B c2e|
def gfe|dcB A2G|BdB cAd|BGG G2:|

%%%

